X:1
T:Ye Happy Bells
T:Ye Happy Bells
T:Joseph Lincoln Hall
T:Minnie A. Greiner-Edington, 1900
T:Public Domain Courtesy of the Cyber Hymnal™
T:Public Domain Courtesy of the Cyber Hymnal™
C:Joseph Lincoln Hall
Z:Public Domain
Z:Courtesy of the Cyber Hymnal™
%%score ( 1 2 ) ( 3 4 )
L:1/8
Q:1/4=105
M:6/8
K:D
V:1 treble 
V:2 treble 
V:3 bass 
V:4 bass 
V:1
 [FA] | [FB]2 [FA] [F^G]2 [FA] | [FB]2 [FA] [F^G]2 [FA] | [FB]2 [FA] [DF]2 D | [CG]3- [CG]2 [CA] | %5
w: 1.~Ye|bells, ye bells, ye|hap- py bells, Ye|bells of Christ- mas|time, * Ring|
w: 2.~Ye|bells, ye bells, ye|hap- py bells, Ye|bells of Christ- mas|day, * Ring|
w: 3.~Ye|bells, ye bells, ye|hap- py bells, Ye|bells of Christ- mas-|tide, * Ring|
 [CB]2 [CA] [C^G]2 [CA] | [CB]2 [CA] [C^G]2 [CA] | [Ec]2 [Ec] [DB]2 [DB] | [CA]3- [CA]2 || %9
w: out, ring out, ring|out a- gain, A|wild- ly joy- ous|chime. *|
w: out, ring out, ring|out a- gain, A|sweet and glad- some|lay. *|
w: out, ring out, ring|out a- gain, O’er|earth a- far and|wide. *|
"^Inst." z | z2 [DG] z2 [DGB] | z2 [DF] [DF]2 z | z2 [A,DF] z2 [DG] | z2 [DF] [DF]2 z | %14
w: |~ ~|~ ~|~ ~|~ ~|
w: |~ ~|~ ~|~ ~|~ ~|
w: |~ ~|~ ~|~ ~|~ ~|
 z2 [DG] z2 [DG] | z2 [EGA] z2 [FA] | z2 [EGA] [EGA]2 [EGA] | [EGA]3 ||"^Girls" (GBc) | d3 A3 | %20
w: ~ ~|~ ~|~ ~ ~|~|The * *|Won- der-|
w: ~ ~|~ ~|~ ~ ~|~|The * *|wil- der-|
w: ~ ~|~ ~|~ ~ ~|~|Whom * *|kings and|
 F3 d3 | e3 B3 | B3 B3 | A3 d3 | d3 c3 | d6- | [Fd]3- [Fd]2 ||"^Refrain" [FA] | %28
w: ful, the|Coun- se-|lor, The|Prince of|Peace is|He.|||
w: ness and|sol- i-|tude, A|fruit- ful|field shall|be.||Ye|
w: pro- phets|longed to|see, Is|born in|Beth- le-|hem.|||
 [FB]2 [FA] [F^G]2 [FA] | [FB]2 [FA] [F^G]2 [FA] | [Fd]2 [Fd] [Fd]2 [Fd] | [Gc]3- [Gc]2 [CA] | %32
w: ||||
w: bells, ye bells, ye|hap- py bells, Ye|bells of Christ- mas-|tide, * Ring|
w: ||||
 [CB]2 [CA] [C^G]2 [CA] | [CB]2 [CA] [C^G]2 [CA] | [Ge]2 [Ge] [Ge]2 [Ge] | [Fd]3- [Fd]2 [FA] | %36
w: ||||
w: out, ring out, ring|out a- gain, O’er|earth a- far and|wide. * Ye|
w: ||||
 [FB]2 [FA] [F^G]2 [FA] | [FB]2 [FA] [F^G]2 [FA] | [Fd]2 [Fd] [Fd]2 [Fc] | [GB]4 (^AB) | z2 x6 | %41
w: |||||
w: bells, ye bells, ye|hap- py bells, Ye|bells of Christ- mas-|tide; Ring *||
w: |||||
 (z2 [^E^GB] [EGB]) x2 | A3 e3 | [Fd]3- [Fd]2 |] %44
w: |||
w: |out, ring|out, *|
w: |||
V:2
 x | x6 | x6 | x5 D | x6 | x6 | x6 | x6 | x5 || x | x6 | x6 | x6 | x6 | x6 | x6 | x6 | x3 || x3 | %19
 (F2 F) (F2 F) | (D2 D) (F2 F) | (G2 G) (G2 G) | (G2 G) (=F2 F) | (F2 F) (F2 F) | (G2 G) (G2 G) | %25
 F2 F G2 G | x5 || x | x6 | x6 | x6 | x6 | x6 | x6 | x6 | x6 | x6 | x6 | x6 | x6 | d4 GG (cB) | %41
 (d4 cB) | (F2 F) (G2 G) | x5 |] %44
V:3
 [D,D] | [D,D]2 [D,D] [D,D]2 [D,D] | [D,D]2 [D,D] [D,D]2 [D,D] | [D,D]2 [D,D] [D,A,]2 [F,A,] | %4
w: ~|~ ~ ~ ~|~ ~ ~ ~|~ ~ ~ ~|
w: ~|~ ~ ~ ~|~ ~ ~ ~|~ ~ ~ ~|
w: ~|~ ~ ~ ~|~ ~ ~ ~|~ ~ ~ ~|
 [E,A,]3- [E,A,]2 [E,A,] | [A,,A,]2 [A,,A,] [A,,A,]2 [A,,A,] | [A,,A,]2 [A,,A,] [A,,A,]2 [A,,A,] | %7
w: ~ * ~|~ ~ ~ ~|~ ~ ~ ~|
w: ~ * ~|~ ~ ~ ~|~ ~ ~ ~|
w: ~ * ~|~ ~ ~ ~|~ ~ ~ ~|
 [E,A,]2 [E,A,] [E,^G,]2 [E,G,] | [A,,A,]3- [A,,A,]2 ||"^Boys" A, | B,3 D3 | (A,3 A,F,)E, | %12
w: ~ ~ ~ ~|~ *|For|un- to|us * * a|
w: ~ ~ ~ ~|~ *|Our|king shall|reign * * in|
w: ~ ~ ~ ~|~ *|The|Sav- ior|prom- * * ised|
 D,3 B,3 | A,3- A,2 A, | B,3 B,3 | C3 D3 | C6- | C3 || z3 | [D,A,]2 [D,A,] [D,A,]2 [D,A,] | %20
w: child is|born, * Our|hope and|light to|be,||||
w: right- eous-|ness, * And|rule in|e- qui-|ty.||||
w: us of|old, * The|rod of|Jes- se’s|stem,||||
 [D,A,]2 [D,A,] [D,A,]2 [D,A,] | [G,B,]2 [G,B,] [G,D]2 [G,D] | [G,D]2 [G,D] [^G,D]2 [G,D] | %23
w: |||
w: |||
w: |||
 [A,D]2 [A,D] [A,D]2 [A,D] | [A,E]2 [A,E] [A,E]2 [A,E] | [D,D]2 [D,A,] [D,B,]2 [D,B,] | %26
w: |||
w: |||
w: |||
 [D,A,]3- [D,A,]2 || [D,D] | [D,D]2 [D,D] [D,D]2 [D,D] | [D,D]2 [D,D] [D,D]2 [D,D] | %30
w: ||||
w: ||||
w: ||||
 [D,A,]2 [D,A,] [D,A,]2 [D,A,] | [E,A,]3- [E,A,]2 [E,A,] | [A,,A,]2 [A,,A,] [A,,A,]2 [A,,A,] | %33
w: |||
w: |||
w: |||
 [A,,A,]2 [A,,A,] [A,,A,]2 [A,,A,] | [A,C]2 [A,C] [A,C]2 [A,C] | [D,A,]3- [D,A,]2 [D,D] | %36
w: |||
w: |||
w: |||
 [D,D]2 [D,D] [D,D]2 [D,D] | [D,D]2 [D,D] [D,D]2 [D,D] | [D,A,]2 [D,A,] [D,A,]2 [D,D] | %39
w: |||
w: |||
w: |||
 [G,D]4 (^A,B,) | (z2 [G,B,] [G,B,]) x4 | (z2 [^G,B,] [G,B,]) x2 | ([A,D]2 [A,D]) ([A,C]2 [A,C]) | %43
w: ||||
w: ||||
w: ||||
 [D,A,D]3- [D,A,D]2 |] %44
w: |
w: |
w: |
V:4
 x | x6 | x6 | x6 | x6 | x6 | x6 | x6 | x5 || x | x6 | x6 | x6 | x6 | x6 | x6 | x6 | x3 || x3 | %19
 x6 | x6 | x6 | x6 | x6 | x6 | x6 | x5 || x | x6 | x6 | x6 | x6 | x6 | x6 | x6 | x6 | x6 | x6 | %38
 x6 | x6 | (D4 CB,) x2 | (D4 CB,) | x6 | x5 |] %44

